build/assets/images/svg/icons/lk/basket/box.svg

<svg width="32" height="32" viewBox="0 0 32 32" fill="none" xmlns="http://www.w3.org/2000/svg">
<rect width="32" height="32" rx="8" fill="#F4F7FB"/>
<path fill-rule="evenodd" clip-rule="evenodd" d="M8.59261 12.6026C8.60798 12.4791 8.63223 12.3142 8.68403 12.1625C8.7158 12.0083 8.78575 11.8851 8.84724 11.7995C8.93174 11.6817 9.03522 11.5856 9.13014 11.5096C9.32022 11.3573 9.56498 11.2154 9.8215 11.0857C10.3412 10.823 11.0297 10.5511 11.7378 10.2979C13.1609 9.78915 14.7539 9.32467 15.4538 9.12621C15.8183 9.02286 16.1972 9.02776 16.5582 9.13904C17.2556 9.35399 18.8453 9.85406 20.2647 10.3742C20.9715 10.6332 21.6541 10.9037 22.1669 11.1513C22.4198 11.2735 22.6574 11.4023 22.8408 11.5337C22.9312 11.5983 23.0337 11.6813 23.1201 11.7834C23.1775 11.8512 23.2701 11.9769 23.3118 12.1505C23.3665 12.3053 23.3917 12.4758 23.4074 12.6026C23.4313 12.7939 23.4476 13.0251 23.4588 13.278C23.4814 13.7855 23.4852 14.4227 23.4786 15.091C23.4654 16.4297 23.4099 17.9288 23.3713 18.841C23.3382 19.6267 22.845 20.3124 22.1205 20.6022L16.7428 22.7533C16.266 22.944 15.7341 22.944 15.2572 22.7533L9.87955 20.6022C9.155 20.3124 8.66187 19.6267 8.6287 18.841C8.59018 17.9288 8.53471 16.4297 8.52147 15.0909C8.51487 14.4227 8.51867 13.7855 8.54123 13.278C8.55247 13.0251 8.56879 12.794 8.59261 12.6026ZM15.3333 21.3477V15.4487C15.3083 15.4398 15.2835 15.4304 15.2587 15.4206L9.87651 13.2677L9.87325 13.3372C9.85228 13.8089 9.84822 14.4181 9.85474 15.0778C9.86776 16.3947 9.92251 17.8768 9.96085 18.7848C9.97163 19.0402 10.1318 19.2671 10.3747 19.3642L15.3333 21.3477ZM16.6666 21.3477V15.4487C16.6917 15.4398 16.7165 15.4304 16.7413 15.4206L22.1236 13.2676L22.1268 13.3372C22.1478 13.8089 22.1519 14.4182 22.1453 15.0778C22.1323 16.3947 22.0776 17.8768 22.0392 18.7848C22.0284 19.0402 21.8682 19.2671 21.6253 19.3642L16.6666 21.3477ZM19.8059 11.6261C20.3341 11.8197 20.8263 12.0119 21.2306 12.1888L19.3443 12.9433L14.4481 10.8121C15.0167 10.6387 15.5051 10.4976 15.8175 10.409C15.9333 10.3762 16.0494 10.3775 16.1655 10.4132C16.8574 10.6265 18.4202 11.1183 19.8059 11.6261ZM12.5316 11.4321L17.6033 13.6397L16.2461 14.1826C16.0872 14.2462 15.9129 14.2462 15.7539 14.1826L10.6789 12.1526C11.094 11.9616 11.6177 11.7569 12.1867 11.5534C12.3006 11.5127 12.4158 11.4722 12.5316 11.4321Z" fill="#203686"/>
</svg>

<svg width="32" height="32" fill="none" xmlns="http://www.w3.org/2000/svg"><rect width="32" height="32" rx="8" fill="#F4F7FB"/><path fill-rule="evenodd" clip-rule="evenodd" d="M8.593 12.603c.015-.124.04-.289.091-.44a.958.958 0 01.163-.364c.085-.117.188-.213.283-.29a4.05 4.05 0 01.691-.423c.52-.263 1.209-.535 1.917-.788a63.055 63.055 0 013.716-1.172 1.935 1.935 0 011.104.013 81.35 81.35 0 013.707 1.235c.706.26 1.39.53 1.902.777.253.123.49.251.674.383.09.064.193.147.28.25a.9.9 0 01.19.366c.055.155.08.326.096.453.024.19.04.422.052.675.022.508.026 1.145.02 1.813a123.912 123.912 0 01-.108 3.75 1.988 1.988 0 01-1.25 1.761l-5.378 2.151a2 2 0 01-1.486 0l-5.377-2.15a1.988 1.988 0 01-1.251-1.762c-.039-.912-.094-2.411-.108-3.75a35.297 35.297 0 01.02-1.813 8.85 8.85 0 01.052-.675zm6.74 8.745v-5.9a2.321 2.321 0 01-.074-.027l-5.382-2.153-.004.07c-.02.47-.025 1.08-.018 1.74.013 1.317.068 2.799.106 3.707.01.255.17.482.414.58l4.958 1.983zm1.334 0v-5.9a2.24 2.24 0 00.074-.027l5.383-2.153.003.07c.02.47.025 1.08.018 1.74a122.773 122.773 0 01-.106 3.707.654.654 0 01-.414.58l-4.958 1.983zm3.139-9.722a26 26 0 011.425.563l-1.887.754-4.896-2.13a73.938 73.938 0 011.37-.404.602.602 0 01.348.004c.691.213 2.254.705 3.64 1.213zm-7.274-.194l5.071 2.208-1.357.543a.659.659 0 01-.492 0l-5.075-2.03c.415-.191.939-.396 1.508-.6l.345-.12z" fill="#203686"/></svg>
